X: 2450
T:Pat Tuohey's Reel
R:reel
H:Also played single.
D:Paddy Glackin: Ceol ar an bhFidil le Paddy Glackin.
Z:id:hn-reel-171
M:C|
K:Edor
BE~E2 BAFA|D2FD ADFA|BE~E2 BAFA|Bdeg feed|1 BE~E2 BAFA|DEED ADFA|
BE~E2 BAFA|Bdeg feed:|2 BEdE cEBE|AD (3FED ADFA|BE~E2 BAFA|Bdeg feed||
|:e2ge bege|defg agfg|e2ge Bege|defa geed|
e2ge Bege|defg a2ga|bgaf gfed|Bdeg feed:|
